X: 1
M: C
L: 1/8
K: D
a2f2 g2f2 | edcB A2f2 | g2B2 c3B/c/ | d2A2 F2ED :|
f2ef d2ef | g2fg e2fg | a2B2 c3B/c/ | d2A2 F2ED |]




